build/img/advant-icon-05.svg

<svg width="53" height="52" viewBox="0 0 53 52" fill="none" xmlns="http://www.w3.org/2000/svg">
<g opacity="0.5">
<path d="M26.5505 21.2811C26.5267 21.4506 26.5135 21.6233 26.5135 21.7993C26.5135 23.834 28.1689 25.4893 30.2037 25.4893C31.2044 25.4893 32.1127 25.0884 32.7781 24.4396H43.5986C44.8559 24.4396 45.8787 23.4168 45.8787 22.1596C45.8787 20.9025 44.8559 19.8797 43.5986 19.8797H33.354C32.7051 18.8189 31.5358 18.1093 30.2036 18.1093C30.113 18.1093 30.0236 18.1138 29.9347 18.1202L24.5536 9.85171C23.868 8.79931 22.4532 8.49977 21.3997 9.18468C20.8888 9.51692 20.5381 10.0281 20.4121 10.6241C20.2862 11.2197 20.3998 11.829 20.732 12.3399L26.5505 21.2811ZM43.5985 21.4033C44.0157 21.4033 44.355 21.7427 44.355 22.1596C44.355 22.5766 44.0157 22.916 43.5985 22.916H33.7207C33.8328 22.5635 33.8939 22.1884 33.8939 21.7993C33.8939 21.6655 33.8863 21.5334 33.8723 21.4033H43.5985ZM32.3703 21.7993C32.3703 22.9939 31.3983 23.9657 30.2036 23.9657C29.0089 23.9657 28.037 22.9939 28.037 21.7993C28.037 20.6047 29.0089 19.6329 30.2036 19.6329C31.3983 19.6329 32.3703 20.6048 32.3703 21.7993ZM21.9029 10.9391C21.9446 10.7416 22.061 10.5721 22.2301 10.4621C22.58 10.2346 23.0495 10.3341 23.2769 10.6831L28.4127 18.5746C27.9621 18.8258 27.5693 19.1683 27.2597 19.5774L22.0094 11.5091C21.8989 11.3392 21.8611 11.1369 21.9029 10.9391Z" fill="white"/>
<path d="M45.5141 6.49053C41.3282 2.305 35.7627 0 29.8428 0C23.9233 0 18.3581 2.305 14.1722 6.49053C9.98637 10.6762 7.68107 16.2412 7.68107 22.1603C7.68107 24.357 8.00204 26.5223 8.63332 28.6007C8.53591 28.9698 8.47385 29.3529 8.45028 29.7463H2.32207C2.04193 29.7463 1.77327 29.7962 1.52431 29.8875C0.635747 30.2134 0 31.0678 0 32.0679V49.6786C0 50.9587 1.04143 52 2.32146 52H29.9397C31.2198 52 32.2612 50.9586 32.2612 49.6786V44.1884C37.5443 43.6149 42.4258 41.1699 46.0712 37.2527C49.898 33.1405 52.0055 27.7806 52.0055 22.1603C52.0055 16.241 49.7002 10.6761 45.5141 6.49053ZM26.7219 50.4765H22.514C22.7622 49.9668 22.8464 49.388 22.7441 48.8173L22.4556 47.2051C22.1897 45.7197 21.1434 44.4779 19.7251 43.9642L18.7415 43.6078V42.0255C19.4404 41.3132 19.8406 40.3424 19.8406 39.3492V37.2277C19.8406 35.1719 18.1679 33.4994 16.1119 33.4994C14.056 33.4994 12.3833 35.1719 12.3833 37.2277V39.4155C12.3833 40.4375 12.8049 41.3706 13.4828 42.048V43.6366L12.5532 43.9736C11.1551 44.4817 10.1129 45.7044 9.8333 47.1644L9.52249 48.7855C9.41167 49.3665 9.49395 49.9571 9.74697 50.4764H5.5394C5.21223 48.4182 3.58228 46.7887 1.5236 46.4617V38.667C1.96676 39.0233 2.48905 39.2912 3.06761 39.4392L10.0754 41.2305C10.4824 41.3343 10.8979 41.0887 11.0021 40.6811C11.1062 40.2735 10.8603 39.8585 10.4527 39.7543L3.44506 37.9631C2.31404 37.6737 1.52411 36.6562 1.52411 35.4888V32.0679C1.52411 31.7105 1.76026 31.4074 2.08469 31.3061C2.15955 31.2828 2.23918 31.2702 2.32156 31.2702H29.9398C30.3797 31.2702 30.7377 31.6281 30.7377 32.068V35.4934C30.7355 36.659 29.9463 37.6741 28.8169 37.963L25.2881 38.8653C25.2818 38.8668 25.2755 38.8682 25.2692 38.8698L21.4564 39.8446C21.0487 39.9488 20.8028 40.3638 20.907 40.7714C20.9951 41.1158 21.3048 41.3448 21.6445 41.3448C21.707 41.3448 21.7705 41.337 21.8338 41.3209L25.6286 40.3507C25.6349 40.3491 25.6412 40.3477 25.6475 40.3461L29.1945 39.4392C29.7727 39.2913 30.2947 39.0236 30.7377 38.6677V46.4619C28.679 46.7887 27.049 48.4182 26.7219 50.4765ZM15.037 38.2751C15.418 38.5424 15.9356 38.6758 16.5267 38.6758C17.0768 38.6758 17.6906 38.5587 18.3171 38.3275V39.3492C18.3171 39.9599 18.0646 40.5579 17.6242 40.9899C17.1986 41.4073 16.646 41.634 16.0686 41.6199C14.8767 41.597 13.9071 40.6081 13.9071 39.4155V37.2277C13.9071 36.012 14.8962 35.023 16.1122 35.023C17.1459 35.023 18.0152 35.7379 18.2527 36.6991C18.1437 36.753 18.032 36.8043 17.9166 36.8507C16.9365 37.2431 16.141 37.1883 15.912 37.0276C15.5674 36.7861 15.0925 36.8694 14.8508 37.2139C14.6092 37.5583 14.6925 38.0335 15.037 38.2751ZM16.0391 43.1433C16.0629 43.1437 16.0868 43.144 16.1105 43.144C16.4908 43.144 16.8631 43.0844 17.2179 42.971V43.7666C16.5449 44.1877 15.6755 44.1875 15.0065 43.7668V42.9739C15.3342 43.077 15.6806 43.1364 16.0391 43.1433ZM14.1397 45.0191C14.7351 45.408 15.4237 45.6028 16.1124 45.6027C16.8122 45.6027 17.5117 45.4016 18.1136 45.0008L19.2063 45.3967C20.115 45.7258 20.7854 46.5216 20.9559 47.4735L21.2443 49.0858C21.3062 49.4312 21.2127 49.7836 20.9878 50.0525C20.7625 50.3217 20.4317 50.4761 20.0801 50.4761H12.1809C11.8271 50.4761 11.4948 50.3199 11.2694 50.0475C11.044 49.7749 10.9528 49.419 11.0191 49.0717L11.3298 47.4511C11.5091 46.5152 12.1773 45.7314 13.0732 45.4058L14.1397 45.0191ZM13.1478 29.7012C13.3485 29.071 13.9383 28.6127 14.6342 28.6127H17.6271C18.323 28.6127 18.9127 29.071 19.1134 29.7012H13.1478ZM20.6751 29.7012C20.4472 28.2239 19.1673 27.0891 17.6271 27.0891H14.6342C13.094 27.0891 11.814 28.2238 11.5862 29.7012H10.1375C10.1283 29.7009 10.119 29.7012 10.1098 29.7012H9.98038C10.1836 27.4818 12.0553 25.7379 14.3267 25.7379H17.9348C20.2062 25.7379 22.0779 27.4818 22.2811 29.7012H20.6751ZM2.32146 50.4765C1.88154 50.4765 1.5236 50.1187 1.5236 49.6787V48.0132C2.74055 48.3004 3.70062 49.2601 3.98797 50.4766H2.32146V50.4765ZM30.7377 49.6786C30.7377 50.1186 30.3797 50.4764 29.9398 50.4764H28.2734C28.5608 49.2599 29.5207 48.3002 30.7378 48.0131V49.6786H30.7377ZM44.956 36.2147C41.5989 39.8221 37.117 42.0889 32.2614 42.6553V40.7481C36.6291 40.1826 40.6519 38.0976 43.6518 34.827C46.8293 31.3629 48.5793 26.8643 48.5793 22.1602C48.5793 11.8243 40.1697 3.4156 29.8328 3.4156C19.4958 3.4156 11.0861 11.8243 11.0861 22.1602C11.0861 22.581 11.4271 22.922 11.8479 22.922C12.2687 22.922 12.6097 22.581 12.6097 22.1602C12.6097 12.6646 20.3359 4.9392 29.8328 4.9392C39.3295 4.9392 47.0557 12.6646 47.0557 22.1602C47.0557 26.482 45.4481 30.6147 42.5291 33.7972C39.8177 36.7532 36.1976 38.6557 32.2615 39.2114V35.4979C32.2615 35.4948 32.2617 35.4916 32.2617 35.4885V32.0676C32.2617 30.7874 31.2203 29.7461 29.9401 29.7461H23.8114C23.6264 26.6648 21.0619 24.2142 17.935 24.2142H14.3269C12.4309 24.2142 10.7426 25.1158 9.66489 26.5118C9.35946 25.0896 9.20487 23.6326 9.20487 22.1601C9.20487 10.781 18.4631 1.52329 29.8431 1.52329C41.2233 1.5235 50.4819 10.7812 50.4819 22.1603C50.4819 27.3942 48.5194 32.3854 44.956 36.2147Z" fill="white"/>
</g>
</svg>

<svg width="53" height="52" fill="none" xmlns="http://www.w3.org/2000/svg"><g opacity=".5" fill="#fff"><path d="M26.55 21.281a3.694 3.694 0 003.653 4.208c1.001 0 1.91-.4 2.575-1.05h10.82a2.283 2.283 0 002.28-2.28 2.283 2.283 0 00-2.28-2.28H33.355a3.692 3.692 0 00-3.42-1.759l-5.38-8.268a2.284 2.284 0 00-3.154-.667 2.263 2.263 0 00-.988 1.44 2.267 2.267 0 00.32 1.715l5.819 8.941zm17.049.122a.757.757 0 010 1.513H33.72a3.679 3.679 0 00.151-1.513H43.6zM32.37 21.8a2.169 2.169 0 01-2.166 2.167 2.169 2.169 0 01-2.167-2.167 2.17 2.17 0 012.167-2.166A2.17 2.17 0 0132.37 21.8zM21.903 10.94a.758.758 0 011.374-.256l5.136 7.892a3.7 3.7 0 00-1.153 1.002l-5.25-8.068a.753.753 0 01-.107-.57z"/><path d="M45.514 6.49A22.018 22.018 0 0029.843 0a22.017 22.017 0 00-15.67 6.49A22.015 22.015 0 007.68 22.16c0 2.197.321 4.362.952 6.44a5.86 5.86 0 00-.183 1.146H2.322A2.325 2.325 0 000 32.068v17.61A2.324 2.324 0 002.321 52H29.94a2.324 2.324 0 002.321-2.321v-5.49a22.08 22.08 0 0013.81-6.936 22.084 22.084 0 005.934-15.093 22.019 22.019 0 00-6.49-15.67zM26.722 50.477h-4.208a2.7 2.7 0 00.23-1.659l-.288-1.612a4.254 4.254 0 00-2.73-3.24l-.985-.357v-1.582a3.846 3.846 0 001.1-2.677v-2.121a3.733 3.733 0 00-3.73-3.729 3.733 3.733 0 00-3.728 3.729v2.188c0 1.022.422 1.955 1.1 2.632v1.589l-.93.337a4.265 4.265 0 00-2.72 3.19l-.31 1.621a2.699 2.699 0 00.224 1.691H5.539a4.849 4.849 0 00-4.015-4.014v-7.795a4.07 4.07 0 001.544.772l7.007 1.791a.762.762 0 00.378-1.476l-7.008-1.79a2.553 2.553 0 01-1.92-2.475v-3.421a.8.8 0 01.797-.798H29.94c.44 0 .798.358.798.798v3.425a2.553 2.553 0 01-1.921 2.47l-3.529.902-.019.005-3.813.975a.762.762 0 10.378 1.476l3.795-.97.018-.005 3.548-.907a4.07 4.07 0 001.543-.771v7.794a4.848 4.848 0 00-4.016 4.014zm-11.685-12.2c.381.266.899.4 1.49.4.55 0 1.164-.117 1.79-.349v1.022a2.31 2.31 0 01-.693 1.64 2.14 2.14 0 01-1.555.63 2.216 2.216 0 01-2.162-2.203v-2.188c0-1.216.99-2.205 2.205-2.205 1.034 0 1.903.715 2.14 1.676a4.87 4.87 0 01-.335.152c-.98.392-1.776.337-2.005.177a.762.762 0 00-.875 1.247zm1.002 4.867l.071.001c.38 0 .753-.06 1.108-.173v.796a2.094 2.094 0 01-2.211 0v-.793a3.71 3.71 0 001.032.17zm-1.9 1.876a3.606 3.606 0 001.973.584c.7 0 1.4-.201 2.002-.602l1.092.396a2.726 2.726 0 011.75 2.077l.288 1.612a1.179 1.179 0 01-1.164 1.39h-7.9a1.18 1.18 0 01-1.16-1.404l.31-1.62c.18-.937.847-1.72 1.743-2.046l1.067-.387zm-.991-15.318c.2-.63.79-1.088 1.486-1.088h2.993c.696 0 1.286.458 1.486 1.088h-5.965zm7.527 0a3.089 3.089 0 00-3.048-2.612h-2.993a3.089 3.089 0 00-3.048 2.612H9.98a4.37 4.37 0 014.347-3.963h3.608A4.37 4.37 0 0122.28 29.7h-1.606zM2.321 50.477a.799.799 0 01-.797-.798v-1.666a3.325 3.325 0 012.464 2.464H2.321zm28.417-.798c0 .44-.358.797-.798.797h-1.667a3.325 3.325 0 012.465-2.463v1.666zm14.218-13.464a20.56 20.56 0 01-12.695 6.44v-1.907a18.692 18.692 0 0011.39-5.921A18.692 18.692 0 0048.58 22.16c0-10.336-8.41-18.744-18.746-18.744-10.337 0-18.747 8.408-18.747 18.744a.762.762 0 101.524 0c0-9.495 7.726-17.22 17.223-17.22s17.223 7.725 17.223 17.22c0 4.322-1.608 8.455-4.527 11.637a17.174 17.174 0 01-10.268 5.414v-7.143a2.324 2.324 0 00-2.32-2.322h-6.13a5.895 5.895 0 00-5.876-5.532h-3.608a5.88 5.88 0 00-4.662 2.298 20.713 20.713 0 01-.46-4.352c0-11.379 9.258-20.637 20.638-20.637 11.38 0 20.639 9.258 20.639 20.637a20.566 20.566 0 01-5.526 14.055z"/></g></svg>
